!!!OTL: 114. Freylekhs
!!!Genre:	Freylekhs
!!!Mode:	Altered Dorian
!!!Listening/dance:	dance
!!!:	*g:; *G:; *g:
!!!One_Mode:	no
**kern
*thru
*part1
*staff1
*clefG2
*k[b-e-]
!!!Begin-Modulation
*G:
=40:|!|:
*k[f#]
!LO:TX:a:i:t=G-major
4.bn
16ddLL
16ccJJ
=41
4.b
16ddLL
16ccJJ
=42
8bL
16ddL
16ccJJ
8bL
16ddL
16ccJJ
=43
4.b
8dd
=44
(>16ddLL
16cc)
(>16cc
16bJJ)
(>8.bL
16ddJk)
=45
16ddLL
16cc
16cc
16bJJ
8.bL
16ddJk
=46
(>16ddLL
16cc)
(>16cc
16bJJ)
(<16bLL
16a)
(<16a
16gJJ)
*>D1
=47
16aLL
16bJ
[8gJ
16gLL]
16d
16g
16aJJ
*>D
*k[f#]
!LO:TX:a:i:t=G-major
4.bn
16ddLL
16ccJJ
=41
4.b
16ddLL
16ccJJ
=42
8bL
16ddL
16ccJJ
8bL
16ddL
16ccJJ
=43
4.b
8dd
=44
(>16ddLL
16cc)
(>16cc
16bJJ)
(>8.bL
16ddJk)
=45
16ddLL
16cc
16cc
16bJJ
8.bL
16ddJk
=46
(>16ddLL
16cc)
(>16cc
16bJJ)
(<16bLL
16a)
(<16a
16gJJ)
*>D2
=48:|!
16aLL
16bJJ
4g
8dd
*>E
=49!|:
16ffnLL
16ee
16dd
16ccJJ
4b
=50
16aLL
16b
16cc
16aJJ
4b
=51
16ffnLL
16ee
16dd
16ccJJ
4b
=52
16aLL
16b
16cc
16aJJ
4g
*>E
!!!End-Modulation
!!!Begin-Modulation
*-
